X:1
T:Prendi vita
T:Prendi vita
T:Francesca Caccini
T:Source : Primo libro delle Musische a 1 e 2 voci---Firenze---Z.Pignoni---1618. Editor : André Vierendeels (25/08/15).
T:Notes : Original clefs : C1, F4. Figures in BC are notated in original print. See also part 1 : "Che fai misero Core", p.2 : Senti l'ira del Ciel" and p.3 :"Queste iacere"
T:Sonetto, part 4
C:Francesca Caccini
%%score 1 2
L:1/8
Q:1/4=120
M:4/4
K:C
V:1 treble nm="Soprano" snm="S"
V:2 bass nm="BC" snm="BC"
V:1
 A3 A c2 cB | B>c d2- dA .TA>G | G3 A/B/ G4 | z2 G2 ABcB | B>c d2- dA B>^F | G4 ^G4 | %6
w: Pren- di vi- ta mor-|tal _ _ _ da que- sta|mor- * * te|che quan- te pia- ghe|so- * * * no'e quan- te|spi- ne|
 B2 BB ^c>d e2- | e2 ^c2 d2 z ^G | A3 B B4 | A8 | c2 ^cc c>d e2- | e2 A2 B3 c | %12
w: de- la sa- lu- * *|* te tua son|tan- te por-|te|del- la sa- lu- * *|* te tua son|
 Td z/ c/4B/4 A/G/^F/E/ F/D/E/F/ ^G/A/G/A/ | B/E/^F/G/ A/B/c/d/ e/c/d/c/ B/c/4A/4B/4^G/4A/4F/4- | %14
w: tan- * * * * * * * * * * * * * *||
 ^G2 A/F/G/A/ B4 | A8 |] %16
w: * te _ _ _ por-|te.|
V:2
"^-natural" A,,4 F,,4 |"^6" D,4 B,,4 |"^6     5""^11" B,,2 B,,2 C,4 |"^10" C,4 F,4 | F,4 F,4 | %5
 E,8 | E,4 E,4 | A,4 ^F,4 | ^C,4 E,4 | A,,8 | A,,4 A,4 | ^F,4 G,2 E,2 | %12
"^-natural" B,,2 C,2 D,2 E,2 | E,4 C,2 F,2 |"^6" E,2 ^C,2 E,,4 | A,,8 |] %16

